X:52
T:Devonshire(?) QuickStep. JJo.052
S:J.Jones MS,1801,N.Shrops.
N:Looks like the page has become wet, or the ink faded.
N:notes are difficult, but not impossible to make out.
N:Title almost illegible (alternative unreadable because of fading).
N:Well worth it for this jolly tune.
A:N. Shropshire
Z:Neil Brookes 2006
M:2/4
L:1/8
Q:1/4=120
K:C
cee2|fdd2|cee2|d/c/B/A/G2|cee2|fdd2|ec e/d/c/B/|c2c2::!
cBAG|FEDC|EGcE|EDD2|cBAG|FEDC|ec B/c/d/B/|c2c2::!
ce e/c/e/c/|fd f/d/f/d/|ec e/c/e/c/|d/c/B/A/G2|!
ce e/c/e/c/|fd f/d/f/d/|ec e/d/c/B/|c2c2:|

